images/aYFI.svg

<svg height="250" viewBox="0 0 250 250" width="250" xmlns="http://www.w3.org/2000/svg" xmlns:xlink="http://www.w3.org/1999/xlink"><linearGradient id="a" gradientUnits="userSpaceOnUse" x1="210.75" x2="51.5" y1="33.75" y2="221.5"><stop offset="0" stop-color="#b6509e"/><stop offset="1" stop-color="#2ebac6"/></linearGradient><linearGradient id="b" gradientUnits="userSpaceOnUse" x1="220.703125" x2="29.296875" y1="130.16796875" y2="130.7421875"><stop offset="0" stop-color="#075eb6"/><stop offset="1" stop-color="#0377fc"/></linearGradient><path d="m250 125c0 69.035156-55.964844 125-125 125s-125-55.964844-125-125 55.964844-125 125-125 125 55.964844 125 125zm0 0" fill="#fff"/><path d="m125 250c-8.460938.003906-16.902344-.847656-25.195312-2.539062-15.988282-3.273438-31.175782-9.667969-44.699219-18.808594-20.09375-13.566406-35.828125-32.671875-45.285157-54.996094-3.195312-7.5625-5.632812-15.417969-7.28125-23.460938-3.386718-16.625-3.386718-33.761718 0-50.382812 3.273438-15.988281 9.664063-31.179688 18.808594-44.699219 13.566406-20.097656 32.671875-35.828125 54.996094-45.289062 7.5625-3.199219 15.417969-5.636719 23.460938-7.285157 16.625-3.386718 33.761718-3.386718 50.382812 0 15.988281 3.273438 31.179688 9.664063 44.699219 18.808594 20.097656 13.566406 35.828125 32.671875 45.289062 54.996094 3.195313 7.5625 5.636719 15.417969 7.285157 23.460938 3.386718 16.625 3.386718 33.761718 0 50.382812-3.273438 15.992188-9.664063 31.179688-18.808594 44.699219-13.566406 20.09375-32.671875 35.828125-54.996094 45.285156-7.5625 3.199219-15.417969 5.640625-23.460938 7.289063-8.292968 1.691406-16.734374 2.542968-25.195312 2.539062zm0-236.609375c-7.554688 0-15.089844.757813-22.492188 2.269531-14.277343 2.921875-27.839843 8.628906-39.910156 16.792969-17.941406 12.113281-31.984375 29.171875-40.429687 49.105469-2.855469 6.75-5.03125 13.769531-6.503907 20.949218-3.023437 14.839844-3.023437 30.140626 0 44.984376 2.925782 14.277343 8.632813 27.835937 16.796876 39.90625 12.113281 17.945312 29.171874 31.992187 49.105468 40.4375 6.75 2.855468 13.769532 5.03125 20.949219 6.503906 14.84375 3.023437 30.144531 3.023437 44.984375 0 14.277344-2.925782 27.839844-8.632813 39.910156-16.796875 17.9375-12.113281 31.976563-29.171875 40.421875-49.101563 2.855469-6.75 5.03125-13.769531 6.503907-20.949218 3.023437-14.84375 3.023437-30.144532 0-44.984376-2.925782-14.277343-8.632813-27.835937-16.796876-39.90625-12.113281-17.941406-29.167968-31.988281-49.097656-40.433593-6.75-2.855469-13.769531-5.03125-20.949218-6.503907-7.402344-1.511718-14.9375-2.273437-22.492188-2.273437zm0 0" fill="url(#a)"/><path d="m220.703125 125c0 52.855469-42.847656 95.703125-95.703125 95.703125s-95.703125-42.847656-95.703125-95.703125 42.847656-95.703125 95.703125-95.703125 95.703125 42.847656 95.703125 95.703125zm0 0" fill="url(#b)"/><g fill="#fff"><path d="m133.289062 126.414062c2.335938 1.425782 4.597657 2.96875 6.773438 4.628907 2.691406 2.320312 5.265625 4.773437 7.707031 7.351562 3.734375 3.882813 5.347657 8.738281 6.125 13.964844 1.308594 8.789063-1.125 16.351563-6.464843 23.4375-7.519532 9.988281-24.128907 13.855469-34.039063 9.308594-5.480469-2.515625-10.4375-5.648438-13.636719-10.414063-4.882812-7.273437-7.96875-15.359375-4.359375-24.386718.933594-2.332032 1.808594-4.6875 2.796875-7.25-3.734375.746093-7.421875 1.476562-11.132812 2.21875-.640625-2.558594-1.269532-4.769532-1.683594-7.023438.070312-.667969.480469-1.25 1.085938-1.539062 8.195312-1.734376 16.421874-3.324219 24.617187-5.0625 1.457031-.308594 1.867187.121093 2.027344 1.417968.574219 4.667969 1.15625 9.335938 1.804687 13.992188.480469 3.472656 1 6.949218 1.636719 10.390625.265625 1.449219-.058594 2.113281-1.5625 2.246093-2.199219.191407-4.394531.480469-6.664063.734376-.691406-4.589844-1.328124-8.816407-2.0625-13.71875-3.066406 5.511718-5.121093 10.402343-3.027343 16.152343 1.671875 4.589844 4.003906 8.796875 8.050781 11.535157 6.519531 4.417968 13.597656 5.640624 21.128906 2.457031 4.183594-1.65625 7.722656-4.621094 10.082032-8.449219 3.234374-5.050781 4.171874-11.238281 2.578124-17.019531-1.238281-5.320313-4.621093-9.894531-9.34375-12.636719-1.722656-.800781-2.734374-2.621094-2.503906-4.503906.15625-2.609375.179688-5.222656.066406-7.832032zm0 0"/><path d="m152.367188 104.902344 10.757812-3.648438c.769531 2.210938 1.617188 4.265625 2.136719 6.398438-.039063.820312-.496094 1.566406-1.210938 1.972656-7.210937 2.769531-14.457031 5.464844-21.730469 8.078125-3.078124 1.113281-3.066406.855469-3.882812-2.292969-1.605469-6.167968-3.492188-12.261718-5.25-18.390625-.480469-1.675781-.929688-3.363281-1.457031-5.28125 2.351562-.839843 4.753906-1.53125 7.191406-2.070312.488281-.085938 1.5625 1.5 1.882813 2.476562.699218 2.113281 1.035156 4.339844 1.613281 6.496094.285156 1.066406.769531 2.070313 1.308593 3.492187 2.375-4.347656 2.554688-8.621093 1.835938-12.960937-1.003906-6.703125-5.222656-12.492187-11.300781-15.496094-3.292969-1.640625-6.933594-2.464843-10.617188-2.40625-7.855469.136719-14.046875 3.933594-18.21875 10.65625-4.6875 7.691407-3.886719 17.527344 1.980469 24.359375 2.339844 2.464844 4.921875 4.691406 7.707031 6.640625 1.308594.777344 2.078125 2.222657 1.996094 3.742188-.089844 2.554687-.023437 5.109375-.023437 8.246093-2.269532-1.574218-4.210938-2.757812-5.964844-4.171874-3.261719-2.636719-6.53125-5.28125-9.585938-8.144532-4.308594-4.046875-6.28125-9.390625-7.152344-15.039062-1.699218-9.652344 1.640626-19.503906 8.851563-26.136719 7.835937-7.582031 17.382813-9.945313 28.085937-7.625 7.605469 1.621094 14.21875 6.273437 18.316407 12.878906 4.367187 6.726563 5.800781 14.945313 3.96875 22.753907-.359375 1.707031-.769531 3.398437-1.238281 5.472656zm0 0"/><path d="m129.25 85.6875v78.3125c-2.5 0-4.875.039062-7.246094-.015625-1.722656-.035156-1.195312-1.425781-1.195312-2.34375-.027344-12.414063-.03125-24.832031-.011719-37.246094 0-12.011719.050781-24.023437-.042969-36.042969-.015625-2.085937.496094-2.921874 2.671875-2.707031 1.820313.1875 3.675781.042969 5.824219.042969zm0 0"/></g></svg>

<svg xmlns="http://www.w3.org/2000/svg" xmlns:xlink="http://www.w3.org/1999/xlink" width="250px" height="250px" viewBox="0 0 250 250" version="1.1">
<defs>
<linearGradient id="linear0" gradientUnits="userSpaceOnUse" x1="0.843" y1="0.135" x2="0.206" y2="0.886" gradientTransform="matrix(250,0,0,250,0,0)">
<stop offset="0" style="stop-color:rgb(71.372551%,31.37255%,61.960787%);stop-opacity:1;"/>
<stop offset="1" style="stop-color:rgb(18.039216%,72.941178%,77.64706%);stop-opacity:1;"/>
</linearGradient>
<linearGradient id="linear1" gradientUnits="userSpaceOnUse" x1="1" y1="0.527" x2="0" y2="0.53" gradientTransform="matrix(191.40625,0,0,191.40625,29.296875,29.296875)">
<stop offset="0" style="stop-color:rgb(2.745098%,36.862746%,71.372551%);stop-opacity:1;"/>
<stop offset="1" style="stop-color:rgb(1.176471%,46.666667%,98.823529%);stop-opacity:1;"/>
</linearGradient>
</defs>
<g id="surface1">
<path style=" stroke:none;fill-rule:nonzero;fill:rgb(100%,100%,100%);fill-opacity:1;" d="M 250 125 C 250 194.035156 194.035156 250 125 250 C 55.964844 250 0 194.035156 0 125 C 0 55.964844 55.964844 0 125 0 C 194.035156 0 250 55.964844 250 125 Z M 250 125 "/>
<path style=" stroke:none;fill-rule:nonzero;fill:url(#linear0);" d="M 125 250 C 116.539062 250.003906 108.097656 249.152344 99.804688 247.460938 C 83.816406 244.1875 68.628906 237.792969 55.105469 228.652344 C 35.011719 215.085938 19.277344 195.980469 9.820312 173.65625 C 6.625 166.09375 4.1875 158.238281 2.539062 150.195312 C -0.847656 133.570312 -0.847656 116.433594 2.539062 99.8125 C 5.8125 83.824219 12.203125 68.632812 21.347656 55.113281 C 34.914062 35.015625 54.019531 19.285156 76.34375 9.824219 C 83.90625 6.625 91.761719 4.1875 99.804688 2.539062 C 116.429688 -0.847656 133.566406 -0.847656 150.1875 2.539062 C 166.175781 5.8125 181.367188 12.203125 194.886719 21.347656 C 214.984375 34.914062 230.714844 54.019531 240.175781 76.34375 C 243.371094 83.90625 245.8125 91.761719 247.460938 99.804688 C 250.847656 116.429688 250.847656 133.566406 247.460938 150.1875 C 244.1875 166.179688 237.796875 181.367188 228.652344 194.886719 C 215.085938 214.980469 195.980469 230.714844 173.65625 240.171875 C 166.09375 243.371094 158.238281 245.8125 150.195312 247.460938 C 141.902344 249.152344 133.460938 250.003906 125 250 Z M 125 13.390625 C 117.445312 13.390625 109.910156 14.148438 102.507812 15.660156 C 88.230469 18.582031 74.667969 24.289062 62.597656 32.453125 C 44.65625 44.566406 30.613281 61.625 22.167969 81.558594 C 19.3125 88.308594 17.136719 95.328125 15.664062 102.507812 C 12.640625 117.347656 12.640625 132.648438 15.664062 147.492188 C 18.589844 161.769531 24.296875 175.328125 32.460938 187.398438 C 44.574219 205.34375 61.632812 219.390625 81.566406 227.835938 C 88.316406 230.691406 95.335938 232.867188 102.515625 234.339844 C 117.359375 237.363281 132.660156 237.363281 147.5 234.339844 C 161.777344 231.414062 175.339844 225.707031 187.410156 217.542969 C 205.347656 205.429688 219.386719 188.371094 227.832031 168.441406 C 230.6875 161.691406 232.863281 154.671875 234.335938 147.492188 C 237.359375 132.648438 237.359375 117.347656 234.335938 102.507812 C 231.410156 88.230469 225.703125 74.671875 217.539062 62.601562 C 205.425781 44.660156 188.371094 30.613281 168.441406 22.167969 C 161.691406 19.3125 154.671875 17.136719 147.492188 15.664062 C 140.089844 14.152344 132.554688 13.390625 125 13.390625 Z M 125 13.390625 "/>
<path style=" stroke:none;fill-rule:nonzero;fill:url(#linear1);" d="M 220.703125 125 C 220.703125 177.855469 177.855469 220.703125 125 220.703125 C 72.144531 220.703125 29.296875 177.855469 29.296875 125 C 29.296875 72.144531 72.144531 29.296875 125 29.296875 C 177.855469 29.296875 220.703125 72.144531 220.703125 125 Z M 220.703125 125 "/>
<path style=" stroke:none;fill-rule:nonzero;fill:rgb(100%,100%,100%);fill-opacity:1;" d="M 133.289062 126.414062 C 135.625 127.839844 137.886719 129.382812 140.0625 131.042969 C 142.753906 133.363281 145.328125 135.816406 147.769531 138.394531 C 151.503906 142.277344 153.117188 147.132812 153.894531 152.359375 C 155.203125 161.148438 152.769531 168.710938 147.429688 175.796875 C 139.910156 185.785156 123.300781 189.652344 113.390625 185.105469 C 107.910156 182.589844 102.953125 179.457031 99.753906 174.691406 C 94.871094 167.417969 91.785156 159.332031 95.394531 150.304688 C 96.328125 147.972656 97.203125 145.617188 98.191406 143.054688 C 94.457031 143.800781 90.769531 144.53125 87.058594 145.273438 C 86.417969 142.714844 85.789062 140.503906 85.375 138.25 C 85.445312 137.582031 85.855469 137 86.460938 136.710938 C 94.65625 134.976562 102.882812 133.386719 111.078125 131.648438 C 112.535156 131.339844 112.945312 131.769531 113.105469 133.066406 C 113.679688 137.734375 114.261719 142.402344 114.910156 147.058594 C 115.390625 150.53125 115.910156 154.007812 116.546875 157.449219 C 116.8125 158.898438 116.488281 159.5625 114.984375 159.695312 C 112.785156 159.886719 110.589844 160.175781 108.320312 160.429688 C 107.628906 155.839844 106.992188 151.613281 106.257812 146.710938 C 103.191406 152.222656 101.136719 157.113281 103.230469 162.863281 C 104.902344 167.453125 107.234375 171.660156 111.28125 174.398438 C 117.800781 178.816406 124.878906 180.039062 132.410156 176.855469 C 136.59375 175.199219 140.132812 172.234375 142.492188 168.40625 C 145.726562 163.355469 146.664062 157.167969 145.070312 151.386719 C 143.832031 146.066406 140.449219 141.492188 135.726562 138.75 C 134.003906 137.949219 132.992188 136.128906 133.222656 134.246094 C 133.378906 131.636719 133.402344 129.023438 133.289062 126.414062 Z M 133.289062 126.414062 "/>
<path style=" stroke:none;fill-rule:nonzero;fill:rgb(100%,100%,100%);fill-opacity:1;" d="M 152.367188 104.902344 L 163.125 101.253906 C 163.894531 103.464844 164.742188 105.519531 165.261719 107.652344 C 165.222656 108.472656 164.765625 109.21875 164.050781 109.625 C 156.839844 112.394531 149.59375 115.089844 142.320312 117.703125 C 139.242188 118.816406 139.253906 118.558594 138.4375 115.410156 C 136.832031 109.242188 134.945312 103.148438 133.1875 97.019531 C 132.707031 95.34375 132.257812 93.65625 131.730469 91.738281 C 134.082031 90.898438 136.484375 90.207031 138.921875 89.667969 C 139.410156 89.582031 140.484375 91.167969 140.804688 92.144531 C 141.503906 94.257812 141.839844 96.484375 142.417969 98.640625 C 142.703125 99.707031 143.1875 100.710938 143.726562 102.132812 C 146.101562 97.785156 146.28125 93.511719 145.5625 89.171875 C 144.558594 82.46875 140.339844 76.679688 134.261719 73.675781 C 130.96875 72.035156 127.328125 71.210938 123.644531 71.269531 C 115.789062 71.40625 109.597656 75.203125 105.425781 81.925781 C 100.738281 89.617188 101.539062 99.453125 107.40625 106.285156 C 109.746094 108.75 112.328125 110.976562 115.113281 112.925781 C 116.421875 113.703125 117.191406 115.148438 117.109375 116.667969 C 117.019531 119.222656 117.085938 121.777344 117.085938 124.914062 C 114.816406 123.339844 112.875 122.15625 111.121094 120.742188 C 107.859375 118.105469 104.589844 115.460938 101.535156 112.597656 C 97.226562 108.550781 95.253906 103.207031 94.382812 97.558594 C 92.683594 87.90625 96.023438 78.054688 103.234375 71.421875 C 111.070312 63.839844 120.617188 61.476562 131.320312 63.796875 C 138.925781 65.417969 145.539062 70.070312 149.636719 76.675781 C 154.003906 83.402344 155.4375 91.621094 153.605469 99.429688 C 153.246094 101.136719 152.835938 102.828125 152.367188 104.902344 Z M 152.367188 104.902344 "/>
<path style=" stroke:none;fill-rule:nonzero;fill:rgb(100%,100%,100%);fill-opacity:1;" d="M 129.25 85.6875 L 129.25 164 C 126.75 164 124.375 164.039062 122.003906 163.984375 C 120.28125 163.949219 120.808594 162.558594 120.808594 161.640625 C 120.78125 149.226562 120.777344 136.808594 120.796875 124.394531 C 120.796875 112.382812 120.847656 100.371094 120.753906 88.351562 C 120.738281 86.265625 121.25 85.429688 123.425781 85.644531 C 125.246094 85.832031 127.101562 85.6875 129.25 85.6875 Z M 129.25 85.6875 "/>
</g>
</svg>
